static/logos/directus.svg

<?xml version="1.0" encoding="UTF-8" standalone="no" ?>
<svg width="66" height="40" viewBox="0 0 66 40" fill="none" xmlns="http://www.w3.org/2000/svg">
          <path fill-rule="evenodd" clip-rule="evenodd" d="M52.6937 25.2423C52.3899 25.1663 52.1367 25.0904 51.9088 24.9891C51.7403 24.9142 51.5995 24.8255 51.4762 24.723C51.3942 24.6548 51.3591 24.5475 51.3693 24.4414C51.4914 23.1693 51.357 22.0473 51.4783 20.7858C51.9847 15.6708 55.2006 17.2914 58.0872 16.4558C59.7448 15.9889 61.4024 15.0699 62.0081 13.2622C62.1073 12.9663 62.02 12.6445 61.8139 12.4102C59.923 10.2602 57.8296 8.36047 55.555 6.7324C47.9296 1.30326 38.0193 -0.951171 28.9182 0.367573C28.5734 0.417531 28.3927 0.799477 28.5811 1.09256C29.7337 2.88624 31.2544 4.35413 32.9983 5.43456C33.3152 5.6309 33.1879 6.05504 32.8241 5.97348C31.9689 5.78172 30.87 5.40776 29.8365 4.67845C29.7369 4.60817 29.6086 4.59047 29.4953 4.63562C29.0333 4.81987 28.3661 5.08554 27.8148 5.32355C27.4974 5.46056 27.4328 5.86986 27.694 6.09629C32.2653 10.0587 38.9153 10.661 44.1225 7.49015C44.4397 7.29698 44.9476 7.69392 44.8454 8.05098C44.6817 8.62295 44.4906 9.40919 44.2871 10.48C42.9957 17.0129 39.2734 16.5064 34.6649 14.8606C25.4563 11.523 20.2322 14.3731 15.5875 8.73124C15.2648 8.33922 14.6974 8.20331 14.3135 8.53568C13.3548 9.3658 12.7873 10.5775 12.7873 11.8726C12.7873 13.4067 13.5791 14.7207 14.7529 15.5073C14.8997 15.6057 15.0948 15.5641 15.2043 15.4254C15.4903 15.0634 15.7243 14.8235 16.0156 14.6717C16.3345 14.5056 16.49 14.9618 16.2208 15.2001C15.2344 16.0736 14.9512 17.114 14.3066 19.1652C13.2937 22.381 13.7242 25.6728 8.98908 26.5337C6.48227 26.6603 6.53291 28.3568 5.62134 30.889C4.56341 33.9452 3.17808 35.2989 0.614191 37.9696C0.263533 38.3349 0.233463 38.9189 0.618832 39.2474C1.64298 40.1202 2.69918 40.1682 3.77288 39.7261C6.43162 38.612 8.48265 35.1683 10.4071 32.94C12.5594 30.4585 17.7249 31.522 21.6244 29.0912C23.7275 27.8016 24.9911 26.1544 24.587 23.6869C24.5219 23.2894 24.9767 23.0506 25.1416 23.418C25.4547 24.1155 25.66 24.8596 25.7453 25.6283C25.7676 25.8299 25.9478 25.979 26.1502 25.9676C30.3691 25.7304 35.8249 30.3838 40.9235 31.6429C41.2337 31.7194 41.4541 31.3612 41.2788 31.0942C40.9562 30.603 40.682 30.0932 40.4635 29.5723C40.238 29.0311 40.0672 28.506 39.9463 27.9992C39.8518 27.6028 40.4309 27.4963 40.6286 27.8527C41.9362 30.2097 44.5495 32.423 48.1865 32.6868C49.4273 32.7881 50.7946 32.6361 52.2126 32.2057C53.9092 31.6993 55.4791 31.0409 57.3529 31.3954C58.7455 31.6486 60.0369 32.3576 60.8472 33.5477C61.9842 35.2059 64.3843 35.6452 65.6636 33.9122C65.8377 33.6764 65.8523 33.3611 65.7373 33.0915C62.9205 26.4892 55.768 26.0357 52.6937 25.2423Z" fill="white"/>
          </svg>

<svg width="66" height="40" fill="none" xmlns="http://www.w3.org/2000/svg"><path fill-rule="evenodd" clip-rule="evenodd" d="M52.694 25.242a4.778 4.778 0 0 1-.785-.253 1.829 1.829 0 0 1-.433-.266.322.322 0 0 1-.107-.282c.122-1.272-.012-2.394.11-3.655.506-5.115 3.722-3.495 6.608-4.33 1.658-.467 3.315-1.386 3.921-3.194a.876.876 0 0 0-.194-.852 37.06 37.06 0 0 0-6.259-5.678C47.93 1.303 38.019-.95 28.918.368a.473.473 0 0 0-.337.725 14.024 14.024 0 0 0 4.417 4.342c.317.196.19.62-.174.538-.855-.191-1.954-.565-2.987-1.295a.36.36 0 0 0-.342-.042c-.462.184-1.129.45-1.68.688a.458.458 0 0 0-.121.772c4.571 3.963 11.221 4.565 16.429 1.394.317-.193.825.204.722.561a27.767 27.767 0 0 0-.558 2.429c-1.291 6.533-5.014 6.026-9.622 4.38-9.209-3.337-14.433-.487-19.078-6.129-.322-.392-.89-.528-1.274-.195a4.413 4.413 0 0 0-1.526 3.337c0 1.534.792 2.848 1.966 3.634a.337.337 0 0 0 .451-.082c.286-.362.52-.602.812-.753.319-.166.474.29.205.528-.987.874-1.27 1.914-1.914 3.965-1.013 3.216-.583 6.508-5.318 7.369-2.507.126-2.456 1.823-3.368 4.355-1.058 3.056-2.443 4.41-5.007 7.08-.35.366-.38.95.005 1.278 1.024.873 2.08.921 3.154.48 2.659-1.115 4.71-4.559 6.634-6.787 2.152-2.481 7.318-1.418 11.217-3.849 2.104-1.29 3.367-2.937 2.963-5.404-.065-.398.39-.636.555-.269.313.698.518 1.442.603 2.21.023.202.203.351.405.34 4.22-.238 9.675 4.416 14.773 5.675.31.076.531-.282.356-.549a9.412 9.412 0 0 1-.816-1.522A10.321 10.321 0 0 1 39.947 28c-.094-.396.485-.503.683-.146 1.307 2.357 3.92 4.57 7.558 4.834 1.24.101 2.608-.05 4.026-.481 1.696-.507 3.266-1.165 5.14-.81 1.392.253 2.684.962 3.494 2.152 1.137 1.658 3.537 2.097 4.817.364.174-.236.188-.55.073-.82-2.816-6.603-9.969-7.056-13.043-7.85z" fill="#fff"/></svg>
